svg/unity.svg

<svg viewBox="0 0 20 20" xmlns="http://www.w3.org/2000/svg">
<rect width="100%" height="100%" fill="black"/>
<path d="M10.6172 5.02312L13.1225 6.43936C13.2125 6.48908 13.2158 6.62702 13.1225 6.67674L10.1456 8.36082C10.0556 8.41215 9.94915 8.40894 9.86562 8.36082L6.88884 6.67674C6.79714 6.62862 6.79551 6.48748 6.88884 6.43936L9.39243 5.02312V2.25L3 5.86517V13.0955L5.4512 11.7098V8.87728C5.44956 8.77621 5.57072 8.70406 5.66078 8.75858L8.63759 10.4427C8.72764 10.494 8.7784 10.5854 8.7784 10.6801V14.0466C8.78004 14.1477 8.65887 14.2198 8.56882 14.1653L6.06359 12.7491L3.61239 14.1348L10.0048 17.75L16.3972 14.1348L13.946 12.7491L11.4409 14.1653C11.3524 14.2183 11.2279 14.1493 11.2312 14.0466V10.6801C11.2312 10.579 11.2886 10.4892 11.372 10.4427L14.3489 8.75858C14.4372 8.70566 14.5617 8.77305 14.5584 8.87728V11.7098L17.0096 13.0955V5.86517L10.6172 2.25V5.02312Z" fill="white"/>
</svg>

<svg xmlns="http://www.w3.org/2000/svg" viewBox="0 0 20 20">
  <rect width="100%" height="100%"/>
  <path fill="#fff" d="m10.62 5.02 2.5 1.42c.1.05.1.19 0 .24l-2.97 1.68a.28.28 0 0 1-.28 0L6.89 6.68c-.1-.05-.1-.2 0-.24l2.5-1.42V2.25L3 5.87v7.23l2.45-1.39V8.88c0-.1.12-.18.21-.12l2.98 1.68c.09.05.14.15.14.24v3.37c0 .1-.12.17-.21.12l-2.5-1.42-2.46 1.38 6.4 3.62 6.39-3.62-2.45-1.38-2.5 1.42c-.1.05-.22-.02-.22-.12v-3.37c0-.1.06-.2.14-.24l2.98-1.68c.09-.05.21.01.2.12v2.83l2.46 1.39V5.87l-6.4-3.62v2.77Z"/>
</svg>
